icons/.icons/Papirus/24x24/panel/viber-normal.svg

<svg xmlns="http://www.w3.org/2000/svg" width="24" height="24" version="1.1">
 <defs>
  <style id="current-color-scheme" type="text/css">
   .ColorScheme-Text { color:#dfdfdf; } .ColorScheme-Highlight { color:#4285f4; }
  </style>
 </defs>
 <g>
  <path style="fill:currentColor" class="ColorScheme-Text" d="m 12.532133,4.0038348 c -0.430981,-0.0128 -0.517978,0.0021 -0.641973,0.113298 -0.203991,0.177796 -0.193991,0.560289 0.017,0.722586 0.113996,0.0849 0.200991,0.104598 0.70297,0.132898 1.485935,0.0848 2.621885,0.477391 3.718838,1.283176 1.315942,0.963282 2.140906,2.305358 2.452892,3.9862272 0.08,0.428492 0.119995,0.786785 0.146994,1.341775 0.016,0.361993 0.028,0.441992 0.076,0.53499 0.150993,0.281995 0.591974,0.322994 0.792966,0.072 0.105996,-0.128998 0.117994,-0.228996 0.099,-0.680988 -0.05,-1.324675 -0.343986,-2.5286532 -0.858963,-3.5411342 -0.369984,-0.725587 -0.716968,-1.193478 -1.345942,-1.810567 -0.67097,-0.653488 -1.178948,-1.011281 -1.971913,-1.390574 -0.806964,-0.384693 -1.541933,-0.599789 -2.450893,-0.710987 -0.179992,-0.0208 -0.511978,-0.0453 -0.736967,-0.0527 z m -5.6421545,0.265595 c -0.1198948,-0.0109 -0.2362897,-0.0103 -0.322186,0.0078 l -0.002,0 c -0.251289,0.0519 -0.5662753,0.234695 -1.2479455,0.730486 -0.4095821,0.299795 -0.9714575,0.837785 -1.1035518,1.054681 -0.3064866,0.51399 -0.2891873,0.950582 0.083996,1.955064 0.639972,1.722568 1.5751311,3.3823372 2.8045775,4.9843082 2.3530972,3.064943 5.3172683,5.293902 9.0291053,6.788874 0.47298,0.190997 0.626973,0.222996 0.997957,0.204997 0.448981,-0.021 0.789965,-0.156997 1.270944,-0.513991 0.531977,-0.393993 1.292944,-1.318975 1.488935,-1.811966 0.184993,-0.467992 0.135994,-0.891984 -0.138993,-1.222978 -0.155994,-0.182996 -1.308943,-1.102979 -1.84792,-1.471973 -0.408982,-0.278995 -1.042954,-0.662987 -1.333942,-0.810985 -0.382983,-0.190996 -0.764967,-0.223996 -1.13795,-0.1 -0.293987,0.099 -0.389983,0.182997 -0.818964,0.708987 -0.221991,0.268995 -0.426982,0.512991 -0.45298,0.53599 -0.029,0.023 -0.121995,0.074 -0.208992,0.112998 -0.345984,0.157997 -0.819963,0.063 -1.59393,-0.314994 C 11.753166,14.815733 11.219189,14.44674 10.614415,13.90375 10.099138,13.444759 9.5793607,12.84377 9.2883731,12.376778 8.9130895,11.774789 8.627002,10.994104 8.6243021,10.562312 c 0,-0.185897 0.076897,-0.449892 0.1718924,-0.5839902 0.036998,-0.0539 0.2720882,-0.258295 0.5233772,-0.456991 0.626472,-0.493191 0.7666673,-0.646988 0.8515633,-0.941383 0.0822,-0.273495 -0.0062,-0.644088 -0.2675893,-1.142579 -0.4573795,-0.873084 -1.8548185,-2.619851 -2.3572965,-2.945245 -0.082196,-0.0519 -0.2260901,-0.123298 -0.3183861,-0.154298 -0.095296,-0.0337 -0.2179905,-0.0574 -0.3378852,-0.0684 z m 5.8881425,1.62307 c -0.148993,0.0229 -0.23599,0.0831 -0.303986,0.187496 l -0.002,0 c -0.126995,0.188597 -0.111995,0.416193 0.039,0.58399 0.097,0.111098 0.23999,0.162697 0.499979,0.183596 0.716968,0.0565 1.501934,0.285795 2.03491,0.595689 0.617974,0.358994 1.125952,0.874784 1.473936,1.499973 0.306986,0.547689 0.484979,1.2528762 0.484979,1.9217642 0,0.433792 0.06,0.592789 0.263988,0.693787 0.120995,0.062 0.341985,0.067 0.444981,0.015 0.095,-0.049 0.205991,-0.165997 0.23999,-0.253995 0.037,-0.093 0.036,-0.653388 0.002,-0.960583 -0.098,-0.8393842 -0.381984,-1.6227702 -0.839964,-2.2890572 -0.813965,-1.182979 -2.05691,-1.910165 -3.66184,-2.140561 -0.315987,-0.0465 -0.526977,-0.06 -0.675971,-0.0371 z m 0.560976,1.931564 c -0.051,0.0058 -0.086,0.0187 -0.136994,0.043 -0.266989,0.134098 -0.340985,0.498291 -0.147994,0.722587 0.104996,0.121298 0.203991,0.156997 0.528977,0.195396 0.69297,0.0828 1.100952,0.335794 1.333942,0.824185 0.107996,0.229696 0.172992,0.4782912 0.206991,0.8319852 0.029,0.266095 0.069,0.364093 0.194991,0.456991 0.174993,0.131598 0.461981,0.125598 0.617974,-0.0136 0.165992,-0.149597 0.195991,-0.329594 0.123995,-0.789086 -0.104997,-0.7046872 -0.344986,-1.1966782 -0.784967,-1.6015702 -0.340985,-0.312494 -0.740967,-0.506691 -1.260945,-0.615189 -0.107995,-0.0228 -0.309986,-0.0452 -0.447979,-0.0527 l -0.002,0 c -0.108996,-0.0063 -0.175993,-0.0077 -0.225991,-0.002 z"/>
 </g>
</svg>

<svg xmlns="http://www.w3.org/2000/svg" width="24" height="24" version="1.1">
 <defs>
  <style id="current-color-scheme" type="text/css">
   .ColorScheme-Text { color:#dfdfdf; } .ColorScheme-Highlight { color:#4285f4; } .ColorScheme-NeutralText { color:#ff9800; } .ColorScheme-PositiveText { color:#4caf50; } .ColorScheme-NegativeText { color:#f44336; }
  </style>
 </defs>
 <path style="fill:currentColor" class="ColorScheme-Text" d="M 12.532,4.0038 C 12.101,3.991 12.014,4.0059 11.89,4.1171 11.686,4.2949 11.696,4.6774 11.907,4.8397 12.021,4.9246 12.108,4.9443 12.61,4.9726 14.096,5.0574 15.232,5.45 16.329,6.2558 17.645,7.2191 18.47,8.5612 18.782,10.242 18.862,10.671 18.902,11.029 18.929,11.584 18.945,11.946 18.957,12.026 19.005,12.119 19.156,12.401 19.597,12.442 19.798,12.191 19.904,12.062 19.916,11.962 19.897,11.51 19.847,10.185 19.553,8.9811 19.038,7.9687 18.668,7.2431 18.321,6.7752 17.692,6.1581 17.021,5.5046 16.513,5.1468 15.72,4.7675 14.913,4.3828 14.178,4.1677 13.269,4.0565 13.089,4.0357 12.757,4.0112 12.532,4.0038 Z M 6.89,4.2694 C 6.7701,4.2585 6.5658,4.2772 6.5658,4.2772 6.3145,4.3291 5.9995,4.5119 5.3178,5.0077 4.9083,5.3075 4.3464,5.8455 4.2143,6.0624 3.9078,6.5764 3.9251,7.013 4.2983,8.0175 4.9383,9.74 5.8734,11.4 7.1029,13.002 9.456,16.067 12.42,18.296 16.132,19.791 16.605,19.982 16.759,20.014 17.13,19.996 17.579,19.975 17.92,19.839 18.401,19.482 18.933,19.088 19.694,18.163 19.89,17.67 20.075,17.202 20.026,16.778 19.751,16.447 19.595,16.264 18.442,15.344 17.903,14.975 17.494,14.696 16.86,14.312 16.569,14.164 16.186,13.973 15.804,13.94 15.431,14.064 15.137,14.163 15.041,14.247 14.612,14.773 14.39,15.042 13.95,15.422 13.95,15.422 13.604,15.58 13.13,15.485 12.356,15.107 11.753,14.816 11.219,14.447 10.614,13.904 10.099,13.445 9.5794,12.844 9.2884,12.377 8.9131,11.775 8.627,10.994 8.6243,10.562 8.6243,10.376 8.7962,9.9783 8.7962,9.9783 L 9.3196,9.5213 C 9.946,9.0281 10.086,8.8743 10.171,8.5799 10.253,8.3065 10.165,7.9359 9.9035,7.4374 9.4462,6.5643 8.0487,4.8175 7.5462,4.4921 7.4641,4.4402 7.3202,4.3688 7.2279,4.3378 7.1326,4.3041 7.0099,4.2804 6.89,4.2694 Z M 12.778,5.8925 C 12.629,5.9154 12.542,5.9756 12.474,6.08 H 12.472 C 12.345,6.2686 12.36,6.4962 12.511,6.664 12.608,6.7751 12.751,6.8267 13.011,6.8476 13.728,6.9041 14.513,7.1334 15.046,7.4433 15.664,7.8023 16.172,8.3181 16.52,8.9432 16.827,9.4909 17.005,10.196 17.005,10.865 17.005,11.299 17.065,11.458 17.269,11.559 17.39,11.621 17.611,11.626 17.714,11.574 17.809,11.525 17.92,11.408 17.954,11.32 17.991,11.227 17.99,10.666 17.956,10.359 17.858,9.5198 17.574,8.7364 17.116,8.0702 16.302,6.8872 15.059,6.16 13.454,5.9296 13.138,5.8831 12.927,5.8696 12.778,5.8925 Z M 13.339,7.8241 C 13.288,7.8299 13.253,7.8428 13.202,7.8671 12.935,8.0012 12.861,8.3654 13.054,8.5897 13.159,8.7109 13.258,8.7466 13.583,8.785 14.276,8.8678 14.684,9.1208 14.917,9.6092 15.025,9.8389 15.09,10.088 15.124,10.441 15.153,10.707 15.193,10.805 15.319,10.898 15.494,11.03 15.781,11.024 15.937,10.885 16.103,10.735 16.133,10.555 16.061,10.096 15.956,9.3908 15.716,8.8988 15.276,8.494 14.935,8.1815 14.535,7.9873 14.015,7.8788 13.907,7.856 13.705,7.8336 13.567,7.8261 13.567,7.8261 13.389,7.8184 13.339,7.8241 Z"/>
</svg>
